X: 23
T: Mary's Return   #2
R: air, jig
%S: s:2 b:14(7+7)
B: "O'Neill's 1850 #23"
Q: "Cheerful"
O: J.O'Neill
Z: Norbert Paap, norbertp@bdu.uva.nl
M: 6/8
L: 1/8
K: C
(c/d/) | efe dcB | cde GcB | Aag fed | c2(d/c/) Bz (c/d/) || efe ded | cde G z(c/B/) | Aag fdB |
| d3 {ed}c2 |] (c/d/) |: efg dgf | efg ccB |[1 ABc edc | B3 dz (g/f/) :|[2 Aag fdB | d3 {ed}c2 |]
